src/lib/packages/icons/src/assets/line/football-helmet.svg

<svg width="24" height="24" viewBox="0 0 24 24" fill="none" xmlns="http://www.w3.org/2000/svg">
<path d="M21.5 13.44C21.34 13.3 21.13 13.2299 20.92 13.25L16.07 13.74L14.82 10.3999L19.12 10.0099C19.51 9.97994 19.86 9.75994 20.07 9.42994C20.28 9.09994 20.32 8.70996 20.19 8.34996C18.75 4.36996 14.8 1.88994 10.58 2.28994C6.08 2.71994 2.50002 6.45995 2.26002 10.9799C2.10002 13.8299 3.24001 16.5499 5.37001 18.4299C5.60001 18.6299 5.9 18.74 6.21 18.74H8.08C8.98 18.74 9.79001 19.24 10.19 20.04C10.4 20.46 10.83 20.73 11.3 20.73H14.25C14.66 20.73 15.05 20.5299 15.28 20.1799C15.51 19.8399 15.56 19.3999 15.41 19.0099L13.98 15.4299L15.07 15.32L16.56 19.2899C17.11 20.7499 18.52 21.72 20.07 21.72H20.99C21.4 21.72 21.74 21.38 21.74 20.97V13.97C21.74 13.76 21.65 13.56 21.49 13.41L21.5 13.44ZM11.46 19.24C10.78 18.01 9.5 17.25 8.08 17.25H6.3C4.56 15.67 3.63002 13.4199 3.76002 11.0599C3.97002 7.27995 6.96002 4.14995 10.73 3.77995C14.15 3.44995 17.36 5.39994 18.66 8.53994L12.93 9.05995C12.22 9.12995 11.59 9.50995 11.22 10.13C10.85 10.74 10.78 11.4699 11.05 12.1399L13.89 19.24H11.46ZM13.41 14L12.44 11.58C12.35 11.36 12.37 11.11 12.5 10.91C12.63 10.71 12.83 10.5799 13.07 10.5599L13.28 10.5399L14.54 13.8899L13.42 14H13.41ZM20.25 14.82V16.3099L17.16 16.6199L16.62 15.19L20.25 14.83V14.82ZM20.08 20.2399C19.15 20.2399 18.3 19.65 17.97 18.7799L17.7 18.07L20.24 17.82V20.2399H20.07H20.08ZM10.02 14.99C10.02 15.54 9.57 15.99 9.02 15.99C8.47 15.99 8.02 15.54 8.02 14.99C8.02 14.44 8.46002 13.99 9.01002 13.99H9.02C9.57 13.99 10.02 14.44 10.02 14.99Z" fill="currentColor"/>
</svg>

<svg xmlns="http://www.w3.org/2000/svg" width="24" height="24" fill="none"><path fill="currentColor" d="M21.5 13.44a.772.772 0 0 0-.58-.19l-4.85.49-1.25-3.34 4.3-.39c.39-.03.74-.25.95-.58.21-.33.25-.72.12-1.08-1.44-3.98-5.39-6.46-9.61-6.06-4.5.43-8.08 4.17-8.32 8.69-.16 2.85.98 5.57 3.11 7.45.23.2.53.31.84.31h1.87c.9 0 1.71.5 2.11 1.3.21.42.64.69 1.11.69h2.95c.41 0 .8-.2 1.03-.55.23-.34.28-.78.13-1.17l-1.43-3.58 1.09-.11 1.49 3.97a3.765 3.765 0 0 0 3.51 2.43h.92c.41 0 .75-.34.75-.75v-7c0-.21-.09-.41-.25-.56l.01.03Zm-10.04 5.8a3.842 3.842 0 0 0-3.38-1.99H6.3a7.745 7.745 0 0 1-2.54-6.19c.21-3.78 3.2-6.91 6.97-7.28a7.775 7.775 0 0 1 7.93 4.76l-5.73.52c-.71.07-1.34.45-1.71 1.07a2.23 2.23 0 0 0-.17 2.01l2.84 7.1h-2.43ZM13.41 14l-.97-2.42a.724.724 0 0 1 .06-.67c.13-.2.33-.33.57-.35l.21-.02 1.26 3.35-1.12.11h-.01Zm6.84.82v1.49l-3.09.31-.54-1.43 3.63-.36v-.01Zm-.17 5.42c-.93 0-1.78-.59-2.11-1.46l-.27-.71 2.54-.25v2.42h-.17.01Zm-10.06-5.25c0 .55-.45 1-1 1s-1-.45-1-1 .44-1 .99-1h.01c.55 0 1 .45 1 1Z"/></svg>
